assets/svg/1F438.svg

<svg xmlns="http://www.w3.org/2000/svg" viewBox="0 0 64 64" enable-background="new 0 0 64 64"><g fill="#f4f5f5"><path d="m58.942 13.288c0 6.892-4.603 12.472-10.277 12.472-5.685 0-10.291-5.58-10.291-12.472 0-6.884 4.606-12.463 10.291-12.463 5.675-.0001 10.277 5.579 10.277 12.463"/><path d="M5.365,12.463c0,6.893,4.603,12.472,10.278,12.472c5.684,0,10.291-5.58,10.291-12.472   C25.934,5.58,21.327,0,15.643,0C9.968,0,5.365,5.58,5.365,12.463z"/></g><g fill="#d1d2d3"><path d="m17.625 19.229c-6.228-3.388-9.199-11.454-6.871-17.73-3.21 2.108-5.389 6.227-5.389 10.964 0 6.893 4.603 12.472 10.278 12.472 2.936 0 5.578-1.497 7.453-3.885-1.932-.332-3.784-.904-5.471-1.821"/><path d="m46.683 20.05c6.228-3.388 9.199-11.453 6.871-17.729 3.21 2.109 5.389 6.228 5.389 10.965 0 6.892-4.603 12.472-10.277 12.472-2.936 0-5.578-1.497-7.453-3.885 1.932-.333 3.783-.905 5.47-1.823"/></g><path fill="#25333a" d="m8.823 12.941c0 4.573 3.054 8.275 6.82 8.275 3.77 0 6.833-3.702 6.833-8.275 0-4.564-3.063-8.275-6.833-8.275-3.766.0001-6.82 3.711-6.82 8.275"/><path fill="#2ca268" d="m3.902 41.545c1.423 0 49.5 0 56.875 0 3.02 0 4.145 3.505 2.317 5.597-16.637 19.21-44.86 19.21-61.51 0-1.813-2.092-.687-5.597 2.32-5.597"/><path fill="#d6df27" d="m10.03 44.22c1.111 0 38.641 0 44.4 0 2.355 0 3.232 3.037 1.808 4.852-12.988 16.643-35.02 16.643-48.02 0-1.417-1.815-.537-4.852 1.81-4.852"/><path fill="#25333a" d="m55.48 13.766c0 4.573-3.054 8.275-6.819 8.275-3.771 0-6.833-3.702-6.833-8.275 0-4.564 3.062-8.275 6.833-8.275 3.766-.0001 6.819 3.71 6.819 8.275"/><path fill="#2bb573" d="m60.07 43.26c-1.423 0-49.5 0-56.875 0-3.02 0-4.144-5.251-2.317-8.386 16.637-28.782 44.86-28.782 61.51 0 1.813 3.135.687 8.386-2.321 8.386"/><path fill="#1d955b" d="m16.359 41.1c-13.03-9.536 1.389-20.769 13.445-27.729-10.599.738-21.06 7.903-28.922 21.512-1.827 3.135-.701 8.386 2.317 8.386h17.376c-1.548-.558-2.975-1.261-4.216-2.169"/></svg>

<?xml version="1.0" encoding="UTF-8" standalone="no"?>
<!-- Generator: Adobe Illustrator 16.0.0, SVG Export Plug-In . SVG Version: 6.00 Build 0)  -->

<svg
   xmlns:dc="http://purl.org/dc/elements/1.1/"
   xmlns:cc="http://creativecommons.org/ns#"
   xmlns:rdf="http://www.w3.org/1999/02/22-rdf-syntax-ns#"
   xmlns:svg="http://www.w3.org/2000/svg"
   xmlns="http://www.w3.org/2000/svg"
   xmlns:sodipodi="http://sodipodi.sourceforge.net/DTD/sodipodi-0.dtd"
   xmlns:inkscape="http://www.inkscape.org/namespaces/inkscape"
   version="1.1"
   id="Layer_1"
   x="0px"
   y="0px"
   width="64px"
   height="64px"
   viewBox="0 0 64 64"
   enable-background="new 0 0 64 64"
   xml:space="preserve"
   inkscape:version="0.48.5 r10040"
   sodipodi:docname="1F438.svg"
   inkscape:export-filename="D:\TESTINGEMOJI\SVGTEST\1F438.png"
   inkscape:export-xdpi="90"
   inkscape:export-ydpi="90"><metadata
   id="metadata3123"><rdf:RDF><cc:Work
       rdf:about=""><dc:format>image/svg+xml</dc:format><dc:type
         rdf:resource="http://purl.org/dc/dcmitype/StillImage" /><dc:title></dc:title></cc:Work></rdf:RDF></metadata><defs
   id="defs3121" /><sodipodi:namedview
   pagecolor="#ffffff"
   bordercolor="#666666"
   borderopacity="1"
   objecttolerance="10"
   gridtolerance="10"
   guidetolerance="10"
   inkscape:pageopacity="0"
   inkscape:pageshadow="2"
   inkscape:window-width="640"
   inkscape:window-height="480"
   id="namedview3119"
   showgrid="false"
   inkscape:zoom="3.6875"
   inkscape:cx="32"
   inkscape:cy="32"
   inkscape:window-x="525"
   inkscape:window-y="402"
   inkscape:window-maximized="0"
   inkscape:current-layer="Layer_1" />
<g
   id="g3097">
	<path
   fill="#F4F5F5"
   d="M58.942,13.288c0,6.892-4.603,12.472-10.277,12.472c-5.685,0-10.291-5.58-10.291-12.472   c0-6.884,4.606-12.463,10.291-12.463C54.34,0.824,58.942,6.404,58.942,13.288z"
   id="path3099" />
	<path
   fill="#F4F5F5"
   d="M5.365,12.463c0,6.893,4.603,12.472,10.278,12.472c5.684,0,10.291-5.58,10.291-12.472   C25.934,5.58,21.327,0,15.643,0C9.968,0,5.365,5.58,5.365,12.463z"
   id="path3101" />
	<path
   fill="#D1D2D3"
   d="M17.625,19.229c-6.228-3.388-9.199-11.454-6.871-17.73C7.544,3.607,5.365,7.726,5.365,12.463   c0,6.893,4.603,12.472,10.278,12.472c2.936,0,5.578-1.497,7.453-3.885C21.164,20.718,19.312,20.146,17.625,19.229z"
   id="path3103" />
	<path
   fill="#D1D2D3"
   d="M46.683,20.052c6.228-3.388,9.199-11.453,6.871-17.729c3.21,2.109,5.389,6.228,5.389,10.965   c0,6.892-4.603,12.472-10.277,12.472c-2.936,0-5.578-1.497-7.453-3.885C43.145,21.542,44.996,20.97,46.683,20.052z"
   id="path3105" />
	<path
   fill="#25333A"
   d="M8.823,12.941c0,4.573,3.054,8.275,6.82,8.275c3.77,0,6.833-3.702,6.833-8.275   c0-4.564-3.063-8.275-6.833-8.275C11.877,4.667,8.823,8.377,8.823,12.941z"
   id="path3107" />
	<path
   fill="#2CA268"
   d="M3.902,41.545c1.423,0,49.498,0,56.875,0c3.019,0,4.145,3.505,2.317,5.597   c-16.637,19.207-44.86,19.207-61.512,0C-0.231,45.05,0.895,41.545,3.902,41.545z"
   id="path3109" />
	<path
   fill="#D6DF27"
   d="M10.03,44.215c1.111,0,38.641,0,44.402,0c2.355,0,3.232,3.037,1.808,4.852   c-12.988,16.643-35.021,16.643-48.02,0C6.803,47.252,7.683,44.215,10.03,44.215z"
   id="path3111" />
	<path
   fill="#25333A"
   d="M55.484,13.766c0,4.573-3.054,8.275-6.819,8.275c-3.771,0-6.833-3.702-6.833-8.275   c0-4.564,3.062-8.275,6.833-8.275C52.431,5.49,55.484,9.201,55.484,13.766z"
   id="path3113" />
	<path
   fill="#2BB573"
   d="M60.074,43.264c-1.423,0-49.497,0-56.875,0c-3.018,0-4.144-5.251-2.317-8.386   c16.637-28.782,44.86-28.782,61.513,0C64.208,38.013,63.082,43.264,60.074,43.264z"
   id="path3115" />
	<path
   fill="#1D955B"
   d="M16.359,41.097c-13.033-9.536,1.389-20.769,13.445-27.729C19.205,14.106,8.747,21.271,0.882,34.88   c-1.827,3.135-0.701,8.386,2.317,8.386h17.376C19.027,42.708,17.6,42.005,16.359,41.097z"
   id="path3117" />
</g>
</svg>
